X:510
T:3 Wet Moose
A:Leeds
C:Alan Dawson
M:11/8
O:England
Q:1/8=400
Z:Richard Robinson 
%%Copyright:Alan Dawson
%%TUNEURL: http://www.leeds.ac.uk/music/Info/RRTuneBk/gettune/0000074d.html
%%ID:0000074d
K:D
d2 cd ee=f aeae|d2 d2 g=fe dcdA|\
d2 d2 c_BA BABA|d2 d2 g=fe {d}f2 f2|
M:13/8
dc_BA =c2c c2c BAG |\
M:7/8
A2 A2 _BAG | A2 A2 A_Bc:|
M:11/8
dc_BA BcB A2 A2|\
M:7/8
=cde =f2 f2|g=fg e2 e2|\
a^ga e2 e2|\
M:11/8
d^c_BA BcB A2 A2|\
M:7/8
| =ccc A2 A2 |
M:11/8
dc_BA BcB A2 A2|\
M:7/8
=cde =f2 f2|g=fg e2 e2|\
a^ga e2 e2|\
M:11/8
d^c_BA BcB A2 A2|]
